src/Pure-Dark/16/symbolic/status/user-not-tracked-symbolic.svg

<?xml version="1.0" encoding="UTF-8" standalone="no"?>
<svg
   width="16"
   height="16"
   version="1.1"
   id="svg1"
   sodipodi:docname="user-not-tracked-symbolic.svg"
   inkscape:version="1.4.2 (ebf0e940d0, 2025-05-08)"
   xmlns:inkscape="http://www.inkscape.org/namespaces/inkscape"
   xmlns:sodipodi="http://sodipodi.sourceforge.net/DTD/sodipodi-0.dtd"
   xmlns="http://www.w3.org/2000/svg"
   xmlns:svg="http://www.w3.org/2000/svg">
  <defs
     id="defs1">
     <style
        id="current-color-scheme"
        type="text/css">
        .ColorScheme-Text { color:#f2f2f2; }
        .ColorScheme-NeutralText { color:#f67400; }
        .ColorScheme-PositiveText { color:#37c837; }
        .ColorScheme-NegativeText { color:#f44336; }
        .ColorScheme-Highlight { color:#3daee9; }
     </style>
  </defs>
  <sodipodi:namedview
     id="namedview1"
     pagecolor="#ffffff"
     bordercolor="#000000"
     borderopacity="0.25"
     inkscape:showpageshadow="2"
     inkscape:pageopacity="0.0"
     inkscape:pagecheckerboard="0"
     inkscape:deskcolor="#d1d1d1"
     inkscape:zoom="49.6875"
     inkscape:cx="8"
     inkscape:cy="8"
     inkscape:window-width="1920"
     inkscape:window-height="1010"
     inkscape:window-x="0"
     inkscape:window-y="0"
     inkscape:window-maximized="1"
     inkscape:current-layer="svg1" />
  <path
     id="path1"
     style="fill:currentColor"
     class="ColorScheme-Text"
     d="M 5 3.1191406 L 4.4375 5.3691406 L 11.5625 5.3691406 L 11 3.1191406 L 8 3.4941406 L 5 3.1191406 z M 4.25 6.1191406 L 2 7.6191406 L 14 7.6191406 L 11.75 6.1191406 L 4.25 6.1191406 z M 5 8.3691406 A 2.25 2.25 0 0 0 5 12.869141 A 2.244 2.244 0 0 0 7.2265625 10.830078 A 1.51 1.51 0 0 1 8 10.619141 C 8.281 10.619141 8.5494375 10.696078 8.7734375 10.830078 A 2.244 2.244 0 0 0 11 12.869141 A 2.25 2.25 0 0 0 11 8.3691406 C 9.957 8.3691406 9.09775 9.0945937 8.84375 10.058594 C 8.57975 9.9495938 8.303 9.8691406 8 9.8691406 C 7.697 9.8691406 7.42025 9.9495938 7.15625 10.058594 C 6.90225 9.0945937 6.043 8.3691406 5 8.3691406 z M 5 9.3085938 A 1.312 1.312 0 0 1 5 11.931641 A 1.312 1.312 0 0 1 5 9.3085938 z M 11 9.3085938 A 1.312 1.312 0 0 1 11 11.931641 A 1.312 1.312 0 0 1 11 9.3085938 z " />
</svg>

<svg width="16" height="16" version="1.1" xmlns="http://www.w3.org/2000/svg">
 <g fill="#f2f2f2">
  <path d="m5 8.37a2.25 2.25 0 0 0 0 4.5 2.244 2.244 0 0 0 2.227-2.04 1.51 1.51 0 0 1 0.773-0.21c0.281 0 0.549 0.076 0.773 0.21a2.244 2.244 0 0 0 2.227 2.04 2.25 2.25 0 0 0 0-4.5c-1.043 0-1.902 0.724-2.156 1.688-0.264-0.109-0.541-0.188-0.844-0.188s-0.58 0.079-0.844 0.188c-0.254-0.964-1.113-1.688-2.156-1.688zm0 0.938a1.312 1.312 0 1 1 0 2.624 1.312 1.312 0 0 1 0-2.624zm6 0a1.312 1.312 0 1 1 0 2.624 1.312 1.312 0 0 1 0-2.624zm-6-6.188-0.563 2.25h7.125l-0.562-2.25-3 0.375zm-0.75 3-2.25 1.5h12l-2.25-1.5z"/>
 </g>
</svg>
